lib/svgs/inbox.svg

<svg xmlns="http://www.w3.org/2000/svg" viewBox="0 0 20 20">
    <path fill="#000" fill-rule="evenodd" d="M17.334 6.902l-6.4-4.601a1.603 1.603 0 0 0-1.868 0l-6.4 4.601A1.6 1.6 0 0 0 2 8.201v7.431a1.6 1.6 0 0 0 1.6 1.6h12.8a1.6 1.6 0 0 0 1.6-1.6V8.201a1.6 1.6 0 0 0-.666-1.299M3.2 15.632V8.849l11.954 7.183H3.6a.4.4 0 0 1-.4-.4M9.767 3.275a.396.396 0 0 1 .467 0l6.104 4.388-6.541 3.75-6.183-3.715 6.153-4.423M16.8 15.621l-5.824-3.5 5.824-3.34v6.84"/>
</svg>

<svg xmlns="http://www.w3.org/2000/svg" viewBox="0 0 20 20">
    <path fill="#000" fill-rule="evenodd" d="M17.334,6.902 L10.934,2.301 C10.655,2.101 10.327,2 10,2 C9.673,2 9.345,2.101 9.066,2.301 L2.666,6.902 C2.248,7.202 2,7.686 2,8.201 L2,15.632 C2,16.516 2.716,17.232 3.6,17.232 L16.4,17.232 C17.284,17.232 18,16.516 18,15.632 L18,8.201 C18,7.686 17.752,7.202 17.334,6.902 L17.334,6.902 L17.334,6.902 L17.334,6.902 L17.334,6.902 Z M3.2,15.632 L3.2,8.849 L15.154,16.032 L3.6,16.032 C3.379,16.032 3.2,15.853 3.2,15.632 L3.2,15.632 L3.2,15.632 L3.2,15.632 L3.2,15.632 Z M9.767,3.275 C9.853,3.213 9.941,3.2 10,3.2 C10.059,3.2 10.147,3.213 10.234,3.275 L16.338,7.663 L9.797,11.413 L3.614,7.698 L9.767,3.275 L9.767,3.275 L9.767,3.275 L9.767,3.275 L9.767,3.275 Z M16.8,15.621 L10.976,12.121 L16.8,8.781 L16.8,15.621 L16.8,15.621 L16.8,15.621 L16.8,15.621 L16.8,15.621 Z"/>
</svg>
